src/assets/img/Home/icons/CaseItem/bex.svg

<svg width="30" height="30" viewBox="0 0 30 30" fill="none" xmlns="http://www.w3.org/2000/svg">
<g id="Icon">
<path id="Subtract" fill-rule="evenodd" clip-rule="evenodd" d="M2.8125 2.8125C2.29473 2.8125 1.875 3.23223 1.875 3.75C1.875 4.26777 2.29473 4.6875 2.8125 4.6875H3.75V17.8125C3.75 19.8836 5.42893 21.5625 7.5 21.5625H9.01179L7.54811 25.9535C7.38438 26.4447 7.64984 26.9757 8.14104 27.1394C8.63223 27.3031 9.16316 27.0377 9.32689 26.5465L9.73821 25.3125H20.2618L20.6731 26.5465C20.8368 27.0377 21.3678 27.3031 21.859 27.1394C22.3502 26.9757 22.6156 26.4447 22.4519 25.9535L20.9882 21.5625H22.5C24.5711 21.5625 26.25 19.8836 26.25 17.8125V4.6875H27.1875C27.7053 4.6875 28.125 4.26777 28.125 3.75C28.125 3.23223 27.7053 2.8125 27.1875 2.8125H2.8125ZM10.3632 23.4375L10.9882 21.5625H19.0118L19.6368 23.4375H10.3632ZM19.6875 8.4375C19.6875 7.91973 19.2678 7.5 18.75 7.5C18.2322 7.5 17.8125 7.91973 17.8125 8.4375V15.9375C17.8125 16.4553 18.2322 16.875 18.75 16.875C19.2678 16.875 19.6875 16.4553 19.6875 15.9375V8.4375ZM15.9375 11.25C15.9375 10.7322 15.5178 10.3125 15 10.3125C14.4822 10.3125 14.0625 10.7322 14.0625 11.25V15.9375C14.0625 16.4553 14.4822 16.875 15 16.875C15.5178 16.875 15.9375 16.4553 15.9375 15.9375V11.25ZM12.1875 14.0625C12.1875 13.5447 11.7678 13.125 11.25 13.125C10.7322 13.125 10.3125 13.5447 10.3125 14.0625V15.9375C10.3125 16.4553 10.7322 16.875 11.25 16.875C11.7678 16.875 12.1875 16.4553 12.1875 15.9375V14.0625Z" fill="#CAFF33"/>
</g>
</svg>

<svg xmlns="http://www.w3.org/2000/svg" width="30" height="30" fill="none"><path fill="#CAFF33" fill-rule="evenodd" d="M2.813 2.813a.937.937 0 1 0 0 1.874h.937v13.125a3.75 3.75 0 0 0 3.75 3.75h1.512l-1.464 4.391a.938.938 0 0 0 1.779.594l.411-1.235h10.524l.411 1.235a.938.938 0 0 0 1.779-.594l-1.464-4.39H22.5a3.75 3.75 0 0 0 3.75-3.75V4.688h.938a.937.937 0 1 0 0-1.875H2.813Zm7.55 20.625.625-1.875h8.024l.625 1.875h-9.274Zm9.325-15a.937.937 0 1 0-1.875 0v7.5a.937.937 0 1 0 1.875 0v-7.5Zm-3.75 2.812a.937.937 0 1 0-1.876 0v4.688a.937.937 0 1 0 1.876 0V11.25Zm-3.75 2.813a.937.937 0 1 0-1.876 0v1.874a.937.937 0 1 0 1.876 0v-1.874Z" clip-rule="evenodd"/></svg>
